src/fileIcons/FileIconRar/FileIconRar_size_m.svg

<svg viewBox="0 0 30 40" xmlns="http://www.w3.org/2000/svg">
  <path
    d="M28 0H2C0.89543 0 0 0.89543 0 2V38C0 39.1046 0.89543 40 2 40H28C29.1046 40 30 39.1046 30 38V2C30 0.89543 29.1046 0 28 0Z"
  />
  <path
    d="M9 11V8.01H8V7H9V7.5C9.22 7.32 9.68667 7 10 7H12V8H10.65C10.4367 8 10.2767 8.07 10.17 8.21C10.0633 8.34333 10.0067 8.48 10 8.62V11H11V12H8V11H9Z"
    fill="#fff"
  />
  <path
    d="M16.95 12C16.8633 12 16.7667 11.9733 16.66 11.92C16.56 11.8667 16.4733 11.7933 16.4 11.7C16.2467 11.9 16.0433 12 15.79 12H14.45C13.9433 12 13.5733 11.9 13.34 11.7C13.1133 11.4933 13 11.1433 13 10.65V10.55C13 9.51667 13.4867 9 14.46 9H16V8.65C16 8.44333 15.9367 8.28333 15.81 8.17C15.6833 8.05667 15.4967 8 15.25 8H13.5V7H15.3C15.88 7 16.3067 7.12667 16.58 7.38C16.86 7.63333 17 8.04 17 8.6V11C17 11.1 17.0367 11.1767 17.11 11.23C17.19 11.2767 17.32 11.3 17.5 11.3V12H16.95ZM15.54 11C15.74 11 15.8667 10.9533 15.92 10.86C15.9733 10.7667 16 10.6467 16 10.5V10H14.6C14.4267 10 14.2833 10.0567 14.17 10.17C14.0567 10.2833 14 10.4267 14 10.6V10.5C14 10.6733 14.04 10.8 14.12 10.88C14.2 10.96 14.3267 11 14.5 11H15.54Z"
    fill="#fff"
  />
  <path
    d="M19 11V8.01H18V7H19V7.5C19.22 7.32 19.6867 7 20 7H22V8H20.65C20.4367 8 20.2767 8.07 20.17 8.21C20.0633 8.34333 20.0067 8.48 20 8.62V11H21V12H18V11H19Z"
    fill="#fff"
  />
  <path
    opacity="0.6"
    fill-rule="evenodd"
    clip-rule="evenodd"
    d="M8 17H7V18V33H8H22H23V18V17H16V18H22V32H8V18V17ZM10 17H12H13V18H15V19H13V20H15V21H13V22H15V23H13V24H15V25H13V26H14V30H11V26H12V24H10V23H12V22H10V21H12V20H10V19H12V18H10V17ZM13 27H12V29H13V27Z"
    fill="#fff"
  />
</svg>

<svg viewBox="0 0 30 40" xmlns="http://www.w3.org/2000/svg">
  <path d="M28 0H2a2 2 0 00-2 2v36a2 2 0 002 2h26a2 2 0 002-2V2a2 2 0 00-2-2z" />
  <path
    fill="#fff"
    d="M9 11V8.01H8V7h1v.5c.22-.18.687-.5 1-.5h2v1h-1.35c-.213 0-.373.07-.48.21a.708.708 0 00-.17.41V11h1v1H8v-1h1zM16.95 12a.66.66 0 01-.29-.08.818.818 0 01-.26-.22.73.73 0 01-.61.3h-1.34c-.507 0-.877-.1-1.11-.3-.227-.207-.34-.557-.34-1.05v-.1C13 9.517 13.487 9 14.46 9H16v-.35c0-.207-.063-.367-.19-.48-.127-.113-.313-.17-.56-.17H13.5V7h1.8c.58 0 1.007.127 1.28.38.28.253.42.66.42 1.22V11c0 .1.037.177.11.23.08.047.21.07.39.07v.7h-.55zm-1.41-1c.2 0 .327-.047.38-.14a.72.72 0 00.08-.36V10h-1.4a.583.583 0 00-.6.6v-.1c0 .173.04.3.12.38.08.08.207.12.38.12h1.04zM19 11V8.01h-1V7h1v.5c.22-.18.687-.5 1-.5h2v1h-1.35c-.213 0-.373.07-.48.21a.708.708 0 00-.17.41V11h1v1h-3v-1h1z"
  />
  <path
    fill="#fff"
    fill-rule="evenodd"
    d="M11 17H7v17h15V17h-4v1h3v15H8V18h3v-1zm1 0h3v1h2v1h-2v1h2v1h-2v1h2v1h-2v1h2v1h-2v1h2v1h-2v1h1v4h-3v-4h1v-2h-2v-1h2v-1h-2v-1h2v-1h-2v-1h2v-1h-2v-1h2v-1h-2v-1zm3 12h-1v2h1v-2z"
    clip-rule="evenodd"
    opacity=".6"
  />
</svg>
